X: 171
T: Terry Traub Jig
T: Jig, D
C: Ray Ellis
L: 1/16
M: 6/8
K: D
|: A2G2| F4D2 F2G2A2| B2G2B2 d2c2B2| A2F2D2 A,2D2F2| G4F2 E2A2G2| F4D2 F2G2A2| B2G2B2 d2c2B2| A2d2e2 f2a2g2| f2d2d2 d2:| 
f2g2| a4f2 d2A2F2| B2G2B2 d2c2B2| A2F2A2 f2a2g2| f2e2d2 e2f2g2| a4f2 d2A2F2| B2G2B2 d2c2B2| A2d2e2 f2a2g2| f2d2d2 d2f2g2| 
a4f2 d2A2F2| B2G2B2 d2c2B2| A2F2A2 f2a2g2| f2e2d2 e2A2G2| F4D2 F2G2A2| B2G2B2 d2c2B2| A2d2e2 f2a2g2| f2d2d2 d2|| 
D: Ray Ellis, More Like Me!, REC001, 1999
